X:1
T:Title
%%score { ( 1 3 ) | ( 2 4 ) }
L:1/8
M:4/4
K:G
V:1 treble nm="Grand Piano"
V:3 treble 
V:2 treble 
V:4 treble 
V:1
 z4 z2[Q:1/4=100] GA | B2 G2 c2 B2 | [EA][EG][DF][CE] [B,D]2 [DG]A | B2 G2 [Ac]2 [GB]2 | [FA]6 Bc | %5
 d2 G2 c2 B2 | [EA][EG][DF][CE] [B,D]2 [B,D][B,D] | [CE][DF][DG][Ec] [DB]2 [CDA]2 | %8
[M:3/4] [B,DG]6 |[M:1/4] [G,B,G][G,DF] |[M:4/4] [G,CE]2 [CEG]2 [Ec]2 [Ge]2 | d3 B d2 BB | %12
 A2 d2 [E^c]2 [Fd][Ge] | d2- [Ad-][Gd-] [Fd]2 Bc | d2 G2 c2 B2 | %15
 [EA][EG][DF][CE] [B,D]2 [B,D][B,D] | [CE][DF][DG][Ec] [DB]2 [CDA]2 |[M:3/4] [B,DG]6 |] %18
V:2
 z4 z2 [G,B,][G,CG] | [G,DG]2 [G,B,]2 [G,E]2[K:bass] [G,D]2 | %2
 [C,C][C,C][C,G,][C,G,] [G,,G,]2 [B,,G,][D,F,D] | [G,D]2 [G,B,D]2 [F,D]2 [G,D]2 | %4
 [D,D]6[K:treble] [G,G][G,A,G] | [G,B,G]2 [G,B,]2 [G,E]2[K:bass] [G,D]2 | %6
 [C,C][C,C][C,G,][C,G,] [G,,G,]2 [G,,G,]2 | [C,G,][C,A,][B,,G,][C,G,] [D,G,]2 D,2 |[M:3/4] G,,6 | %9
[M:1/4] G,,B,, |[M:4/4] C,2 C,2 [C,G,]2 [C,C]2 | [G,B,G]3 [G,D] [G,B,G]2 [G,DG][G,DG] | %12
 [A,DF]2 [A,F]2[K:bass] [A,,A,]2 [A,,A,][A,,A,] | %13
 D,2- [D,-C][D,-B,] [D,A,]2[K:treble] [G,D][G,A,D] | [G,B,G]2 [G,B,]2 [G,E]2[K:bass] [G,D]2 | %15
 [C,C][C,C][C,G,][C,G,] [G,,G,]2 [G,,G,][G,,G,] | [C,G,][C,A,][B,,G,][C,G,] [D,G,]2 D,2 | %17
[M:3/4] G,,6 |] %18
V:3
 x8 | x8 | x8 | x8 | x8 | x8 | x8 | x8 |[M:3/4] x6 |[M:1/4] x2 |[M:4/4] x8 | x8 | x8 | F2 z2 z4 | %14
 x8 | x8 | x8 |[M:3/4] x6 |] %18
V:4
 x8 | x6[K:bass] x2 | x8 | x8 | x6[K:treble] x2 | x6[K:bass] x2 | x8 | x8 |[M:3/4] x6 |[M:1/4] x2 | %10
[M:4/4] x8 | x8 | x4[K:bass] x4 | A,2 z2 z4[K:treble] | x6[K:bass] x2 | x8 | x8 |[M:3/4] x6 |] %18

